assets/fa/fa-soap.svg

<svg xmlns="http://www.w3.org/2000/svg" width="100%" height="100%" viewBox="-43.52 -43.52 599.04 599.04"><path d="M416 192a95.42 95.42 0 01-30.94 70.21A95.8 95.8 0 01352 448H160a96 96 0 010-192h88.91A95.3 95.3 0 01224 192H96a96 96 0 00-96 96v128a96 96 0 0096 96h320a96 96 0 0096-96V288a96 96 0 00-96-96zm-96 64a64 64 0 10-64-64 64 64 0 0064 64zM208 96a48 48 0 10-48-48 48 48 0 0048 48zm176-32a32 32 0 10-32-32 32 32 0 0032 32zM160 288a64 64 0 000 128h192a64 64 0 000-128z"/></svg>

<svg xmlns="http://www.w3.org/2000/svg" width="100%" height="100%" viewBox="-43.52 -43.52 599.04 599.04"><path d="M416,192a95.42,95.42,0,0,1-30.94,70.21A95.8,95.8,0,0,1,352,448H160a96,96,0,0,1,0-192h88.91A95.3,95.3,0,0,1,224,192H96A96,96,0,0,0,0,288V416a96,96,0,0,0,96,96H416a96,96,0,0,0,96-96V288A96,96,0,0,0,416,192Zm-96,64a64,64,0,1,0-64-64A64,64,0,0,0,320,256ZM208,96a48,48,0,1,0-48-48A48,48,0,0,0,208,96ZM384,64a32,32,0,1,0-32-32A32,32,0,0,0,384,64ZM160,288a64,64,0,0,0,0,128H352a64,64,0,0,0,0-128Z"/></svg>
